X: 39
T:LeaRay Wolf Chase (1027 Dogs)
S:http://www.possummonorail.com/Warehouse/G_LeaRayWolfChase.pdf
M:C|
L:1/8
R:Reel
K:G
"G"B-d2e-d2 d2- |dedB A2 [B2G2]|B-d2 e-d2de|"D"dB A2 "G"[B2-G2][B2G2]|
"G"d2B2 d2 B2|dedB A2 [B2G2] |B-d2 e-d2de|"D"dB A2 "G"[B2-G2][B2G2]|
"C"ABAG E2G2-|G2 (3EGE D2 G2|ABAG E2G2-|"G"G2 (3EGE D4|
"C"ABAG E2 AB|AG E2 D2 E2|ABAG E2G2-|"G"G2 (3EGE D4|

